files/2/96x96/places/folder-wine.svg

<?xml version="1.0" encoding="UTF-8" standalone="no"?>
<svg
   xmlns:dc="http://purl.org/dc/elements/1.1/"
   xmlns:cc="http://creativecommons.org/ns#"
   xmlns:rdf="http://www.w3.org/1999/02/22-rdf-syntax-ns#"
   xmlns:svg="http://www.w3.org/2000/svg"
   xmlns="http://www.w3.org/2000/svg"
   xmlns:sodipodi="http://sodipodi.sourceforge.net/DTD/sodipodi-0.dtd"
   xmlns:inkscape="http://www.inkscape.org/namespaces/inkscape"
   width="96"
   viewBox="0 0 96 96"
   height="96"
   id="svg3151"
   version="1.1"
   inkscape:version="0.48.5 r10040"
   sodipodi:docname="folder-wine.svg">
  <metadata
     id="metadata3173">
    <rdf:RDF>
      <cc:Work
         rdf:about="">
        <dc:format>image/svg+xml</dc:format>
        <dc:type
           rdf:resource="http://purl.org/dc/dcmitype/StillImage" />
      </cc:Work>
    </rdf:RDF>
  </metadata>
  <defs
     id="defs3171" />
  <sodipodi:namedview
     pagecolor="#ffffff"
     bordercolor="#666666"
     borderopacity="1"
     objecttolerance="10"
     gridtolerance="10"
     guidetolerance="10"
     inkscape:pageopacity="0"
     inkscape:pageshadow="2"
     inkscape:window-width="1280"
     inkscape:window-height="998"
     id="namedview3169"
     showgrid="true"
     inkscape:zoom="4.9166665"
     inkscape:cx="64.605717"
     inkscape:cy="114.97124"
     inkscape:window-x="0"
     inkscape:window-y="0"
     inkscape:window-maximized="1"
     inkscape:current-layer="svg3151">
    <inkscape:grid
       type="xygrid"
       id="grid3093"
       empspacing="5"
       visible="true"
       enabled="true"
       snapvisiblegridlinesonly="true" />
  </sodipodi:namedview>
  <path
     style="font-size:medium;font-style:normal;font-variant:normal;font-weight:normal;font-stretch:normal;text-indent:0;text-align:start;text-decoration:none;line-height:normal;letter-spacing:normal;word-spacing:normal;text-transform:none;direction:ltr;block-progression:tb;writing-mode:lr-tb;text-anchor:start;baseline-shift:baseline;color:#000000;fill:#e9b080;fill-opacity:1;fill-rule:nonzero;stroke:none;stroke-width:1;marker:none;visibility:visible;display:inline;overflow:visible;enable-background:accumulate;font-family:Sans;-inkscape-font-specification:Sans"
     d="m 12.000041,12.000036 c -1.999999,0 -3.9999979,1.999999 -3.9999979,3.999998 l 0,3.999998 -1.9999991,0 c -1.999999,0 -4.0111358,1.898413 -3.999998,3.999998 l 0,55.999972 C 2.0003021,82.241469 4.075571,83.9998 6.3750438,84 L 89.625002,84 C 92,84 94,82.000001 94,80.000002 l 0,-49.999975 c 0,-1.999999 -2,-3.999998 -3.999998,-3.999998 l -3.999998,0 0,-9.999995 c 0,-1.999999 -1.999999,-3.999998 -3.999998,-3.999998 z"
     id="path3770"
     inkscape:connector-curvature="0"
     sodipodi:nodetypes="sscsccccccccsss" />
  <path
     inkscape:connector-curvature="0"
     style="font-size:medium;font-style:normal;font-variant:normal;font-weight:normal;font-stretch:normal;text-indent:0;text-align:start;text-decoration:none;line-height:normal;letter-spacing:normal;word-spacing:normal;text-transform:none;direction:ltr;block-progression:tb;writing-mode:lr-tb;text-anchor:start;baseline-shift:baseline;color:#000000;fill:#000000;fill-opacity:0.32156863;fill-rule:nonzero;stroke:none;stroke-width:1;marker:none;visibility:visible;display:inline;overflow:visible;enable-background:accumulate;font-family:Sans;-inkscape-font-specification:Sans"
     d="m 12.000041,12.000036 c -1.999999,0 -3.9999979,1.999999 -3.9999979,3.999998 l 0,3.999998 -1.9999991,0 c -1.999999,0 -4.0111358,1.898413 -3.999998,3.999998 l 0,55.999972 C 2.0003021,82.241469 4.075571,83.9998 6.3750438,84 L 89.625002,84 C 92,84 94,82.000001 94,80.000002 l 0,-49.999975 c 0,-1.999999 -2,-3.999998 -3.999998,-3.999998 l -3.999998,0 0,-9.999995 c 0,-1.999999 -1.999999,-3.999998 -3.999998,-3.999998 l -69.999965,0 z m -5.999997,9.999995 47.999976,0 c 1.014627,0 1.999999,0.988334 1.999999,1.999999 l 0,3.999998 33.999983,0 C 91.081718,28.000028 92,28.943646 92,30.000027 l 0,49.999975 c 0,1.107509 -0.904228,1.999999 -1.999998,1.999999 l -83.999958,0 c -1.0254515,0 -1.999999,-0.892492 -1.999999,-1.999999 l 0,-55.999972 c 0,-1.086636 0.9580835,-1.999999 1.999999,-1.999999 z"
     id="path3779" />
  <path
     style="line-height:normal;color:#000000;fill:#000000;fill-opacity:0.32157072"
     id="path3974"
     d="m 60.565103,37.878423 c -1.464868,0.024 -2.905953,0.983399 -3.136583,2.771599 -0.36901,2.861198 2.398563,1.788199 4.612622,1.788199 2.214059,0 2.952078,4.649397 2.398565,7.152796 -0.553516,2.503599 -6.438439,8.416996 -19.742026,2.503599 -10.953059,-4.868597 -16.421718,1.613799 -16.697694,1.743399 1.036579,9.672396 9.488003,20.16199 19.742024,20.16199 10.954169,0 19.834278,-11.556995 19.834278,-22.173589 0,-1.219399 -0.14502,-2.420198 -0.36901,-3.576398 -0.203676,-0.5844 -0.403978,-1.167399 -0.553513,-1.698799 -0.268052,-0.9526 -0.570758,-1.7562 -0.830273,-2.503599 -0.0112,-0.024 0.01139,-0.064 0,-0.09 -1.048572,-2.256999 -2.518716,-4.297398 -4.335865,-5.990597 -0.0082,-0.02 -0.03796,0.02 -0.04612,0 -0.283966,-0.07 -0.583425,-0.094 -0.876399,-0.09 z"
     inkscape:connector-curvature="0" />
  <path
     style="line-height:normal;color:#000000;fill:#000000;fill-opacity:0.32157072"
     id="path3976"
     d="m 59.999971,48.000218 c 0,1.1046 -0.895429,1.999799 -1.999999,1.999799 -1.10457,0 -1.999999,-0.895199 -1.999999,-1.999799 0,-1.104599 0.895429,-2.000199 1.999999,-2.000199 1.10457,0 1.999999,0.8956 1.999999,2.000199 z"
     inkscape:connector-curvature="0" />
  <path
     style="line-height:normal;color:#000000;fill:#000000;fill-opacity:0.32157072"
     id="path3978"
     d="m 53.999974,41.000021 c 0,0.5524 -0.447716,1 -0.999999,1 -0.552284,0 -1,-0.4476 -1,-1 0,-0.552399 0.447716,-0.999999 1,-0.999999 0.552283,0 0.999999,0.4476 0.999999,0.999999 z"
     inkscape:connector-curvature="0" />
</svg>

<svg xmlns="http://www.w3.org/2000/svg" xmlns:xlink="http://www.w3.org/1999/xlink" width="96px" height="96px" viewBox="0 0 96 96" version="1.1">
<g id="surface1">
<path style=" stroke:none;fill-rule:nonzero;fill:rgb(91.372549%,69.019608%,50.196078%);fill-opacity:1;" d="M 12 12 C 10 12 8 14 8 16 L 8 20 L 6 20 C 4 20 1.988281 21.898438 2 24 L 2 80 C 2 82.242188 4.074219 84 6.375 84 L 89.625 84 C 92 84 94 82 94 80 L 94 30 C 94 28 92 26 90 26 L 86 26 L 86 16 C 86 14 84 12 82 12 Z M 12 12 "/>
<path style=" stroke:none;fill-rule:nonzero;fill:rgb(0%,0%,0%);fill-opacity:0.321569;" d="M 60.777344 35.878906 C 59.3125 35.902344 57.871094 36.863281 57.640625 38.648438 C 57.269531 41.511719 60.039062 40.4375 62.253906 40.4375 C 64.46875 40.4375 65.207031 45.085938 64.652344 47.589844 C 64.097656 50.09375 58.214844 56.007812 44.910156 50.09375 C 33.957031 45.226562 28.488281 51.707031 28.210938 51.839844 C 29.25 61.511719 37.699219 72 47.953125 72 C 58.90625 72 67.789062 60.441406 67.789062 49.828125 C 67.789062 48.605469 67.644531 47.40625 67.417969 46.25 C 67.214844 45.664062 67.015625 45.082031 66.867188 44.550781 C 66.597656 43.597656 66.292969 42.796875 66.035156 42.046875 C 66.023438 42.023438 66.046875 41.984375 66.035156 41.957031 C 64.988281 39.699219 63.515625 37.660156 61.699219 35.96875 C 61.691406 35.953125 61.660156 35.980469 61.652344 35.96875 C 61.371094 35.898438 61.070312 35.871094 60.777344 35.875 Z M 60.777344 35.878906 "/>
<path style=" stroke:none;fill-rule:nonzero;fill:rgb(0%,0%,0%);fill-opacity:0.321569;" d="M 57.734375 42.671875 C 57.734375 43.265625 57.238281 43.746094 56.625 43.746094 C 56.015625 43.746094 55.519531 43.265625 55.519531 42.671875 C 55.519531 42.082031 56.015625 41.601562 56.625 41.601562 C 57.238281 41.601562 57.734375 42.082031 57.734375 42.671875 Z M 57.734375 42.671875 "/>
<path style=" stroke:none;fill-rule:nonzero;fill:rgb(0%,0%,0%);fill-opacity:0.321569;" d="M 55.519531 38.785156 C 55.519531 39.203125 55.167969 39.542969 54.734375 39.542969 C 54.300781 39.542969 53.949219 39.203125 53.949219 38.785156 C 53.949219 38.363281 54.300781 38.023438 54.734375 38.023438 C 55.167969 38.023438 55.519531 38.363281 55.519531 38.785156 Z M 55.519531 38.785156 "/>
<path style=" stroke:none;fill-rule:nonzero;fill:rgb(0%,0%,0%);fill-opacity:0.321569;" d="M 12 12 C 10 12 8 14 8 16 L 8 20 L 6 20 C 4 20 1.988281 21.898438 2 24 L 2 80 C 2 82.242188 4.074219 84 6.375 84 L 89.625 84 C 92 84 94 82 94 80 L 94 30 C 94 28 92 26 90 26 L 86 26 L 86 16 C 86 14 84 12 82 12 Z M 6 22 L 54 22 C 55.015625 22 56 22.988281 56 24 L 56 28 L 90 28 C 91.082031 28 92 28.945312 92 30 L 92 80 C 92 81.109375 91.097656 82 90 82 L 6 82 C 4.972656 82 4 81.109375 4 80 L 4 24 C 4 22.914062 4.957031 22 6 22 Z M 6 22 "/>
</g>
</svg>
